dark/Papirus-Mer/MerPlaces/folder-blue-templates-open.svg

<?xml version="1.0" encoding="UTF-8" standalone="no"?>
<svg
   xmlns:dc="http://purl.org/dc/elements/1.1/"
   xmlns:cc="http://creativecommons.org/ns#"
   xmlns:rdf="http://www.w3.org/1999/02/22-rdf-syntax-ns#"
   xmlns:svg="http://www.w3.org/2000/svg"
   xmlns="http://www.w3.org/2000/svg"
   xmlns:sodipodi="http://sodipodi.sourceforge.net/DTD/sodipodi-0.dtd"
   xmlns:inkscape="http://www.inkscape.org/namespaces/inkscape"
   width="32"
   height="32"
   version="1"
   id="svg16"
   sodipodi:docname="folder-blue-templates-open.svg"
   inkscape:version="0.92.4 5da689c313, 2019-01-14">
  <metadata
     id="metadata22">
    <rdf:RDF>
      <cc:Work
         rdf:about="">
        <dc:format>image/svg+xml</dc:format>
        <dc:type
           rdf:resource="http://purl.org/dc/dcmitype/StillImage" />
        <dc:title></dc:title>
      </cc:Work>
    </rdf:RDF>
  </metadata>
  <defs
     id="defs20" />
  <sodipodi:namedview
     pagecolor="#ffffff"
     bordercolor="#666666"
     borderopacity="1"
     objecttolerance="10"
     gridtolerance="10"
     guidetolerance="10"
     inkscape:pageopacity="0"
     inkscape:pageshadow="2"
     inkscape:window-width="640"
     inkscape:window-height="480"
     id="namedview18"
     showgrid="false"
     inkscape:zoom="9.362793"
     inkscape:cx="14.1309"
     inkscape:cy="16"
     inkscape:window-x="0"
     inkscape:window-y="26"
     inkscape:window-maximized="0"
     inkscape:current-layer="svg16" />
  <rect
     style="opacity:0.2"
     width="25"
     height="16"
     x="3"
     y="12"
     rx="1.25"
     ry="1.25"
     id="rect2" />
  <path
     style="fill:#ff6600"
     d="M 3,21.75 C 3,22.442 3.5575,23 4.25,23 H 26.75 C 27.442,23 28,22.442 28,21.75 V 8.25 C 28,7.5575 27.442,7 26.75,7 H 14 V 6.25 C 14,5.5575 13.443,5 12.75,5 H 4.25 C 3.5575,5 3,5.5575 3,6.25"
     id="path4" />
  <rect
     style="opacity:0.2"
     width="25"
     height="13"
     x="3"
     y="13"
     rx="1.25"
     ry="1.25"
     id="rect6" />
  <rect
     style="fill:#e4e4e4"
     width="21"
     height="10"
     x="5"
     y="9"
     rx="1.25"
     ry="1.25"
     id="rect8" />
  <rect
     style="fill:#ff6600"
     width="25"
     height="13"
     x="3"
     y="14"
     rx="1.25"
     ry="1.25"
     id="rect10" />
  <path
     style="opacity:0.1;fill:#ffffff"
     d="M 4.25 5 C 3.5575 5 3 5.5575 3 6.25 L 3 7.25 C 3 6.5575 3.5575 6 4.25 6 L 12.75 6 C 13.443 6 14 6.5575 14 7.25 L 14 8 L 26.75 8 C 27.442 8 28 8.5575 28 9.25 L 28 8.25 C 28 7.5575 27.442 7 26.75 7 L 14 7 L 14 6.25 C 14 5.5575 13.443 5 12.75 5 L 4.25 5 z"
     id="path12" />
  <path
     style="fill:#000000"
     d="M 12.75,16 C 12.334,16 12,16.335 12,16.75 V 23 H 13 V 24 H 14 V 18 H 17 V 20 H 18 V 25 H 19 V 24 H 20 V 18.5 L 17.5,16 Z M 19,25 V 26 H 20 V 25 Z M 18,25 H 17 V 26 H 18 Z M 17,25 V 24 H 16 V 25 Z M 16,25 H 15 V 26 H 16 Z M 15,25 V 24 H 14 V 25 Z M 14,25 H 13 V 26 H 14 Z M 13,25 V 24 H 12 V 25 Z"
     id="path14" />
</svg>

<?xml version="1.0" encoding="utf-8"?>
<!-- Generator: Adobe Illustrator 24.0.2, SVG Export Plug-In . SVG Version: 6.00 Build 0)  -->
<svg version="1.1"
	 id="svg16" xmlns:cc="http://creativecommons.org/ns#" xmlns:dc="http://purl.org/dc/elements/1.1/" xmlns:inkscape="http://www.inkscape.org/namespaces/inkscape" xmlns:rdf="http://www.w3.org/1999/02/22-rdf-syntax-ns#" xmlns:sodipodi="http://sodipodi.sourceforge.net/DTD/sodipodi-0.dtd" xmlns:svg="http://www.w3.org/2000/svg"
	 xmlns="http://www.w3.org/2000/svg" xmlns:xlink="http://www.w3.org/1999/xlink" x="0px" y="0px" viewBox="0 0 32 32"
	 style="enable-background:new 0 0 32 32;" xml:space="preserve">
<style type="text/css">
	.st0{fill:#CCCCCC;}
	.st1{fill:#2E2E2E;}
	.st2{fill:#A3A3A3;}
	.st3{fill:#252525;}
	.st4{fill:#E4E4E4;}
	.st5{fill:#434343;}
	.st6{fill:#FF6600;}
</style>
<sodipodi:namedview  bordercolor="#666666" borderopacity="1" gridtolerance="10" guidetolerance="10" id="namedview18" inkscape:current-layer="svg16" inkscape:cx="14.1309" inkscape:cy="16" inkscape:pageopacity="0" inkscape:pageshadow="2" inkscape:window-height="480" inkscape:window-maximized="0" inkscape:window-width="640" inkscape:window-x="0" inkscape:window-y="26" inkscape:zoom="9.362793" objecttolerance="10" pagecolor="#ffffff" showgrid="false">
	</sodipodi:namedview>
<g>
	<path class="st0" d="M3,13.3L3,13.3v13.5C3,27.4,3.6,28,4.2,28h22.5c0.7,0,1.3-0.6,1.3-1.2v-2c0,0.7-0.6,1.2-1.3,1.2H4.2
		C3.6,26,3,25.4,3,24.8v-3l0,0V13.3"/>
	<path class="st1" d="M3,21.7C3,22.4,3.6,23,4.2,23h22.5c0.7,0,1.3-0.6,1.3-1.3V8.3C28,7.6,27.4,7,26.7,7H14V6.2
		C14,5.6,13.4,5,12.8,5H4.2C3.6,5,3,5.6,3,6.2V21.7"/>
	<path class="st2" d="M28,21.7c0,0.7-0.6,1.3-1.3,1.3H4.2C3.6,23,3,22.4,3,21.7v3C3,25.4,3.6,26,4.2,26h22.5c0.7,0,1.3-0.6,1.3-1.2
		V21.7"/>
	<path class="st3" d="M26.7,13H4.2C3.6,13,3,13.6,3,14.2v7.5C3,22.4,3.6,23,4.2,23h22.5c0.7,0,1.3-0.6,1.3-1.3l0,0v-7.5
		C28,13.6,27.4,13,26.7,13"/>
	<path class="st4" d="M6.2,9h18.5c0.7,0,1.2,0.6,1.2,1.2v7.5c0,0.7-0.6,1.2-1.2,1.2H6.2C5.6,19,5,18.4,5,17.8v-7.5
		C5,9.6,5.6,9,6.2,9z"/>
	<path class="st1" d="M4.2,14h22.5c0.7,0,1.2,0.6,1.2,1.2v10.5c0,0.7-0.6,1.2-1.2,1.2H4.2C3.6,27,3,26.4,3,25.8V15.2
		C3,14.6,3.6,14,4.2,14z"/>
	<path class="st5" d="M12.8,5H4.2C3.6,5,3,5.6,3,6.2v1C3,6.6,3.6,6,4.2,6h8.5C13.4,6,14,6.6,14,7.2V8h12.8C27.4,8,28,8.6,28,9.2v-1
		C28,7.6,27.4,7,26.7,7H14V6.2C14,5.6,13.4,5,12.8,5"/>
	<path class="st6" d="M12.8,16c-0.4,0-0.8,0.3-0.8,0.8V23h1v1h1v-6h3v2h1v5h1v-1h1v-5.5L17.5,16H12.8z M19,25v1h1v-1H19z M18,25h-1
		v1h1V25z M17,25v-1h-1v1H17z M16,25h-1v1h1V25z M15,25v-1h-1v1H15z M14,25h-1v1h1V25z M13,25v-1h-1v1H13z"/>
</g>
</svg>
